www/assets/icons/people_outline.svg

<svg xmlns="http://www.w3.org/2000/svg" width="24" height="24" viewBox="0 0 24 24" fill='currentColor'><path d="M16.5 13c-1.2 0-3.07.34-4.5 1-1.43-.67-3.3-1-4.5-1C5.33 13 1 14.08 1 16.25V19h22v-2.75c0-2.17-4.33-3.25-6.5-3.25m-4 4.5h-10v-1.25c0-.54 2.56-1.75 5-1.75s5 1.21 5 1.75zm9 0H14v-1.25c0-.46-.2-.86-.52-1.22.88-.3 1.96-.53 3.02-.53 2.44 0 5 1.21 5 1.75zM7.5 12c1.93 0 3.5-1.57 3.5-3.5S9.43 5 7.5 5 4 6.57 4 8.5 5.57 12 7.5 12m0-5.5c1.1 0 2 .9 2 2s-.9 2-2 2-2-.9-2-2 .9-2 2-2m9 5.5c1.93 0 3.5-1.57 3.5-3.5S18.43 5 16.5 5 13 6.57 13 8.5s1.57 3.5 3.5 3.5m0-5.5c1.1 0 2 .9 2 2s-.9 2-2 2-2-.9-2-2 .9-2 2-2"/></svg>

<svg width="24" height="24" viewBox="0 0 24 24" xmlns="http://www.w3.org/2000/svg" fill='currentColor'><path d="M16.5 13C15.3 13 13.43 13.34 12 14C10.57 13.33 8.7 13 7.5 13C5.33 13 1 14.08 1 16.25V19H23V16.25C23 14.08 18.67 13 16.5 13ZM12.5 17.5H2.5V16.25C2.5 15.71 5.06 14.5 7.5 14.5C9.94 14.5 12.5 15.71 12.5 16.25V17.5ZM21.5 17.5H14V16.25C14 15.79 13.8 15.39 13.48 15.03C14.36 14.73 15.44 14.5 16.5 14.5C18.94 14.5 21.5 15.71 21.5 16.25V17.5ZM7.5 12C9.43 12 11 10.43 11 8.5C11 6.57 9.43 5 7.5 5C5.57 5 4 6.57 4 8.5C4 10.43 5.57 12 7.5 12ZM7.5 6.5C8.6 6.5 9.5 7.4 9.5 8.5C9.5 9.6 8.6 10.5 7.5 10.5C6.4 10.5 5.5 9.6 5.5 8.5C5.5 7.4 6.4 6.5 7.5 6.5ZM16.5 12C18.43 12 20 10.43 20 8.5C20 6.57 18.43 5 16.5 5C14.57 5 13 6.57 13 8.5C13 10.43 14.57 12 16.5 12ZM16.5 6.5C17.6 6.5 18.5 7.4 18.5 8.5C18.5 9.6 17.6 10.5 16.5 10.5C15.4 10.5 14.5 9.6 14.5 8.5C14.5 7.4 15.4 6.5 16.5 6.5Z"/></svg>
